images/3235078.svg

<?xml version="1.0" encoding="UTF-8"?>
<svg xmlns="http://www.w3.org/2000/svg" xmlns:xlink="http://www.w3.org/1999/xlink" width="300pt" height="300pt" viewBox="0 0 300 300" version="1.1">
<defs>
<g>
<symbol overflow="visible" id="glyph0-0">
<path style="stroke:none;" d="M 0.546875 1.9375 L 0.546875 -7.75 L 6.046875 -7.75 L 6.046875 1.9375 Z M 1.171875 1.328125 L 5.4375 1.328125 L 5.4375 -7.140625 L 1.171875 -7.140625 Z M 1.171875 1.328125 "/>
</symbol>
<symbol overflow="visible" id="glyph0-1">
<path style="stroke:none;" d="M 4.328125 -7.28125 C 3.546875 -7.28125 2.921875 -6.984375 2.453125 -6.390625 C 1.992188 -5.804688 1.765625 -5.007812 1.765625 -4 C 1.765625 -2.988281 1.992188 -2.1875 2.453125 -1.59375 C 2.921875 -1.007812 3.546875 -0.71875 4.328125 -0.71875 C 5.117188 -0.71875 5.742188 -1.007812 6.203125 -1.59375 C 6.660156 -2.1875 6.890625 -2.988281 6.890625 -4 C 6.890625 -5.007812 6.660156 -5.804688 6.203125 -6.390625 C 5.742188 -6.984375 5.117188 -7.28125 4.328125 -7.28125 Z M 4.328125 -8.171875 C 5.453125 -8.171875 6.351562 -7.789062 7.03125 -7.03125 C 7.707031 -6.28125 8.046875 -5.269531 8.046875 -4 C 8.046875 -2.738281 7.707031 -1.726562 7.03125 -0.96875 C 6.351562 -0.21875 5.453125 0.15625 4.328125 0.15625 C 3.203125 0.15625 2.300781 -0.21875 1.625 -0.96875 C 0.957031 -1.71875 0.625 -2.726562 0.625 -4 C 0.625 -5.269531 0.957031 -6.28125 1.625 -7.03125 C 2.300781 -7.789062 3.203125 -8.171875 4.328125 -8.171875 Z M 4.328125 -8.171875 "/>
</symbol>
<symbol overflow="visible" id="glyph0-2">
<path style="stroke:none;" d="M 1.078125 -8.015625 L 2.546875 -8.015625 L 6.09375 -1.3125 L 6.09375 -8.015625 L 7.15625 -8.015625 L 7.15625 0 L 5.6875 0 L 2.125 -6.703125 L 2.125 0 L 1.078125 0 Z M 1.078125 -8.015625 "/>
</symbol>
</g>
</defs>
<g id="surface35345">
<rect x="0" y="0" width="300" height="300" style="fill:rgb(100%,100%,100%);fill-opacity:1;stroke:none;"/>
<path style="fill:none;stroke-width:1.2;stroke-linecap:butt;stroke-linejoin:miter;stroke:rgb(0%,0%,0%);stroke-opacity:1;stroke-miterlimit:10;" d="M 35.25 114.847656 L 39.976562 128.054688 "/>
<path style="fill:none;stroke-width:1.2;stroke-linecap:butt;stroke-linejoin:miter;stroke:rgb(100%,0%,0%);stroke-opacity:1;stroke-miterlimit:10;" d="M 39.976562 128.054688 L 44.703125 141.261719 "/>
<path style="fill:none;stroke-width:1.2;stroke-linecap:butt;stroke-linejoin:miter;stroke:rgb(100%,0%,0%);stroke-opacity:1;stroke-miterlimit:10;" d="M 44.703125 141.261719 L 58.5 143.773438 "/>
<path style="fill:none;stroke-width:1.2;stroke-linecap:butt;stroke-linejoin:miter;stroke:rgb(0%,0%,0%);stroke-opacity:1;stroke-miterlimit:10;" d="M 58.5 143.773438 L 72.300781 146.285156 "/>
<path style=" stroke:none;fill-rule:nonzero;fill:rgb(100%,100%,100%);fill-opacity:1;" d="M 40.703125 134.761719 L 49.703125 134.761719 L 49.703125 147.761719 L 40.703125 147.761719 Z M 40.703125 134.761719 "/>
<g style="fill:rgb(100%,0%,0%);fill-opacity:1;">
  <use xlink:href="#glyph0-1" x="40.703125" y="144.663086"/>
</g>
<path style="fill:none;stroke-width:1.2;stroke-linecap:butt;stroke-linejoin:miter;stroke:rgb(0%,0%,0%);stroke-opacity:1;stroke-miterlimit:10;" d="M 72.300781 146.285156 L 90.449219 124.890625 "/>
<path style="fill:none;stroke-width:1.2;stroke-linecap:butt;stroke-linejoin:miter;stroke:rgb(0%,0%,0%);stroke-opacity:1;stroke-miterlimit:10;" d="M 79.148438 148.414062 L 93.667969 131.300781 "/>
<path style="fill:none;stroke-width:1.2;stroke-linecap:butt;stroke-linejoin:miter;stroke:rgb(0%,0%,0%);stroke-opacity:1;stroke-miterlimit:10;" d="M 81.753906 172.699219 L 72.300781 146.285156 "/>
<path style="fill:none;stroke-width:1.2;stroke-linecap:butt;stroke-linejoin:miter;stroke:rgb(0%,0%,0%);stroke-opacity:1;stroke-miterlimit:10;" d="M 90.449219 124.890625 L 118.050781 129.914062 "/>
<path style="fill:none;stroke-width:1.2;stroke-linecap:butt;stroke-linejoin:miter;stroke:rgb(0%,0%,0%);stroke-opacity:1;stroke-miterlimit:10;" d="M 118.050781 129.914062 L 127.503906 156.328125 "/>
<path style="fill:none;stroke-width:1.2;stroke-linecap:butt;stroke-linejoin:miter;stroke:rgb(0%,0%,0%);stroke-opacity:1;stroke-miterlimit:10;" d="M 112.78125 134.777344 L 120.34375 155.910156 "/>
<path style="fill:none;stroke-width:1.2;stroke-linecap:butt;stroke-linejoin:miter;stroke:rgb(0%,0%,0%);stroke-opacity:1;stroke-miterlimit:10;" d="M 127.503906 156.328125 L 109.351562 177.71875 "/>
<path style="fill:none;stroke-width:1.2;stroke-linecap:butt;stroke-linejoin:miter;stroke:rgb(0%,0%,0%);stroke-opacity:1;stroke-miterlimit:10;" d="M 127.503906 156.328125 L 155.101562 161.347656 "/>
<path style="fill:none;stroke-width:1.2;stroke-linecap:butt;stroke-linejoin:miter;stroke:rgb(0%,0%,0%);stroke-opacity:1;stroke-miterlimit:10;" d="M 109.351562 177.71875 L 81.753906 172.699219 "/>
<path style="fill:none;stroke-width:1.2;stroke-linecap:butt;stroke-linejoin:miter;stroke:rgb(0%,0%,0%);stroke-opacity:1;stroke-miterlimit:10;" d="M 107.773438 170.722656 L 85.695312 166.707031 "/>
<path style="fill:none;stroke-width:1.2;stroke-linecap:butt;stroke-linejoin:miter;stroke:rgb(0%,0%,0%);stroke-opacity:1;stroke-miterlimit:10;" d="M 155.101562 161.347656 L 159.828125 174.554688 "/>
<path style="fill:none;stroke-width:1.2;stroke-linecap:butt;stroke-linejoin:miter;stroke:rgb(0%,0%,100%);stroke-opacity:1;stroke-miterlimit:10;" d="M 159.828125 174.554688 L 164.554688 187.761719 "/>
<path style="fill:none;stroke-width:1.2;stroke-linecap:butt;stroke-linejoin:miter;stroke:rgb(0%,0%,0%);stroke-opacity:1;stroke-miterlimit:10;" d="M 162.261719 161.765625 L 166.042969 172.332031 "/>
<path style="fill:none;stroke-width:1.2;stroke-linecap:butt;stroke-linejoin:miter;stroke:rgb(0%,0%,100%);stroke-opacity:1;stroke-miterlimit:10;" d="M 166.042969 172.332031 L 169.824219 182.898438 "/>
<path style="fill:none;stroke-width:1.2;stroke-linecap:butt;stroke-linejoin:miter;stroke:rgb(0%,0%,0%);stroke-opacity:1;stroke-miterlimit:10;" d="M 173.25 139.957031 L 155.101562 161.347656 "/>
<path style="fill:none;stroke-width:1.2;stroke-linecap:butt;stroke-linejoin:miter;stroke:rgb(0%,0%,100%);stroke-opacity:1;stroke-miterlimit:10;" d="M 164.554688 187.761719 L 178.355469 190.273438 "/>
<path style="fill:none;stroke-width:1.2;stroke-linecap:butt;stroke-linejoin:miter;stroke:rgb(0%,0%,0%);stroke-opacity:1;stroke-miterlimit:10;" d="M 178.355469 190.273438 L 192.15625 192.785156 "/>
<path style=" stroke:none;fill-rule:nonzero;fill:rgb(100%,100%,100%);fill-opacity:1;" d="M 160.554688 181.261719 L 168.554688 181.261719 L 168.554688 194.261719 L 160.554688 194.261719 Z M 160.554688 181.261719 "/>
<g style="fill:rgb(0%,0%,100%);fill-opacity:1;">
  <use xlink:href="#glyph0-2" x="160.554688" y="191.163086"/>
</g>
<path style="fill:none;stroke-width:1.2;stroke-linecap:butt;stroke-linejoin:miter;stroke:rgb(0%,0%,0%);stroke-opacity:1;stroke-miterlimit:10;" d="M 192.15625 192.785156 L 201.605469 219.195312 "/>
<path style="fill:none;stroke-width:1.2;stroke-linecap:butt;stroke-linejoin:miter;stroke:rgb(0%,0%,0%);stroke-opacity:1;stroke-miterlimit:10;" d="M 199.3125 193.199219 L 206.875 214.332031 "/>
<path style="fill:none;stroke-width:1.2;stroke-linecap:butt;stroke-linejoin:miter;stroke:rgb(0%,0%,0%);stroke-opacity:1;stroke-miterlimit:10;" d="M 210.304688 171.390625 L 192.15625 192.785156 "/>
<path style="fill:none;stroke-width:1.2;stroke-linecap:butt;stroke-linejoin:miter;stroke:rgb(0%,0%,0%);stroke-opacity:1;stroke-miterlimit:10;" d="M 201.605469 219.195312 L 215.40625 221.707031 "/>
<path style="fill:none;stroke-width:1.2;stroke-linecap:butt;stroke-linejoin:miter;stroke:rgb(0%,0%,100%);stroke-opacity:1;stroke-miterlimit:10;" d="M 215.40625 221.707031 L 229.207031 224.21875 "/>
<path style="fill:none;stroke-width:1.2;stroke-linecap:butt;stroke-linejoin:miter;stroke:rgb(0%,0%,100%);stroke-opacity:1;stroke-miterlimit:10;" d="M 229.207031 224.21875 L 238.28125 213.523438 "/>
<path style="fill:none;stroke-width:1.2;stroke-linecap:butt;stroke-linejoin:miter;stroke:rgb(0%,0%,0%);stroke-opacity:1;stroke-miterlimit:10;" d="M 238.28125 213.523438 L 247.355469 202.828125 "/>
<path style="fill:none;stroke-width:1.2;stroke-linecap:butt;stroke-linejoin:miter;stroke:rgb(0%,0%,100%);stroke-opacity:1;stroke-miterlimit:10;" d="M 225.988281 217.808594 L 233.246094 209.253906 "/>
<path style="fill:none;stroke-width:1.2;stroke-linecap:butt;stroke-linejoin:miter;stroke:rgb(0%,0%,0%);stroke-opacity:1;stroke-miterlimit:10;" d="M 233.246094 209.253906 L 240.507812 200.695312 "/>
<path style=" stroke:none;fill-rule:nonzero;fill:rgb(100%,100%,100%);fill-opacity:1;" d="M 225.207031 217.71875 L 233.207031 217.71875 L 233.207031 230.71875 L 225.207031 230.71875 Z M 225.207031 217.71875 "/>
<g style="fill:rgb(0%,0%,100%);fill-opacity:1;">
  <use xlink:href="#glyph0-2" x="225.207031" y="227.620117"/>
</g>
<path style="fill:none;stroke-width:1.2;stroke-linecap:butt;stroke-linejoin:miter;stroke:rgb(0%,0%,0%);stroke-opacity:1;stroke-miterlimit:10;" d="M 247.355469 202.828125 L 242.628906 189.621094 "/>
<path style="fill:none;stroke-width:1.2;stroke-linecap:butt;stroke-linejoin:miter;stroke:rgb(0%,0%,100%);stroke-opacity:1;stroke-miterlimit:10;" d="M 242.628906 189.621094 L 237.902344 176.414062 "/>
<path style="fill:none;stroke-width:1.2;stroke-linecap:butt;stroke-linejoin:miter;stroke:rgb(0%,0%,100%);stroke-opacity:1;stroke-miterlimit:10;" d="M 237.902344 176.414062 L 224.101562 173.902344 "/>
<path style="fill:none;stroke-width:1.2;stroke-linecap:butt;stroke-linejoin:miter;stroke:rgb(0%,0%,0%);stroke-opacity:1;stroke-miterlimit:10;" d="M 224.101562 173.902344 L 210.304688 171.390625 "/>
<path style="fill:none;stroke-width:1.2;stroke-linecap:butt;stroke-linejoin:miter;stroke:rgb(0%,0%,100%);stroke-opacity:1;stroke-miterlimit:10;" d="M 233.960938 182.40625 L 222.921875 180.398438 "/>
<path style="fill:none;stroke-width:1.2;stroke-linecap:butt;stroke-linejoin:miter;stroke:rgb(0%,0%,0%);stroke-opacity:1;stroke-miterlimit:10;" d="M 222.921875 180.398438 L 211.882812 178.386719 "/>
<path style=" stroke:none;fill-rule:nonzero;fill:rgb(100%,100%,100%);fill-opacity:1;" d="M 233.902344 169.914062 L 241.902344 169.914062 L 241.902344 182.914062 L 233.902344 182.914062 Z M 233.902344 169.914062 "/>
<g style="fill:rgb(0%,0%,100%);fill-opacity:1;">
  <use xlink:href="#glyph0-2" x="233.902344" y="179.81543"/>
</g>
<path style="fill:none;stroke-width:1.2;stroke-linecap:butt;stroke-linejoin:miter;stroke:rgb(0%,0%,0%);stroke-opacity:1;stroke-miterlimit:10;" d="M 210.304688 171.390625 L 205.578125 158.183594 "/>
<path style="fill:none;stroke-width:1.2;stroke-linecap:butt;stroke-linejoin:miter;stroke:rgb(0%,0%,100%);stroke-opacity:1;stroke-miterlimit:10;" d="M 205.578125 158.183594 L 200.851562 144.976562 "/>
<path style="fill:none;stroke-width:1.2;stroke-linecap:butt;stroke-linejoin:miter;stroke:rgb(0%,0%,100%);stroke-opacity:1;stroke-miterlimit:10;" d="M 200.851562 144.976562 L 187.050781 142.46875 "/>
<path style="fill:none;stroke-width:1.2;stroke-linecap:butt;stroke-linejoin:miter;stroke:rgb(0%,0%,0%);stroke-opacity:1;stroke-miterlimit:10;" d="M 187.050781 142.46875 L 173.25 139.957031 "/>
<path style="fill:none;stroke-width:1.2;stroke-linecap:butt;stroke-linejoin:miter;stroke:rgb(0%,0%,100%);stroke-opacity:1;stroke-miterlimit:10;" d="M 200.851562 144.976562 L 209.925781 134.28125 "/>
<path style="fill:none;stroke-width:1.2;stroke-linecap:butt;stroke-linejoin:miter;stroke:rgb(0%,0%,0%);stroke-opacity:1;stroke-miterlimit:10;" d="M 209.925781 134.28125 L 219 123.585938 "/>
<path style=" stroke:none;fill-rule:nonzero;fill:rgb(100%,100%,100%);fill-opacity:1;" d="M 196.851562 138.476562 L 204.851562 138.476562 L 204.851562 151.476562 L 196.851562 151.476562 Z M 196.851562 138.476562 "/>
<g style="fill:rgb(0%,0%,100%);fill-opacity:1;">
  <use xlink:href="#glyph0-2" x="196.851562" y="148.37793"/>
</g>
<path style="fill:none;stroke-width:1.2;stroke-linecap:butt;stroke-linejoin:miter;stroke:rgb(0%,0%,0%);stroke-opacity:1;stroke-miterlimit:10;" d="M 176.359375 138.84375 L 171.632812 125.636719 "/>
<path style="fill:none;stroke-width:1.2;stroke-linecap:butt;stroke-linejoin:miter;stroke:rgb(100%,0%,0%);stroke-opacity:1;stroke-miterlimit:10;" d="M 171.632812 125.636719 L 166.90625 112.433594 "/>
<path style="fill:none;stroke-width:1.2;stroke-linecap:butt;stroke-linejoin:miter;stroke:rgb(0%,0%,0%);stroke-opacity:1;stroke-miterlimit:10;" d="M 170.144531 141.070312 L 165.417969 127.863281 "/>
<path style="fill:none;stroke-width:1.2;stroke-linecap:butt;stroke-linejoin:miter;stroke:rgb(100%,0%,0%);stroke-opacity:1;stroke-miterlimit:10;" d="M 165.417969 127.863281 L 160.691406 114.65625 "/>
<path style=" stroke:none;fill-rule:nonzero;fill:rgb(100%,100%,100%);fill-opacity:1;" d="M 154.800781 107.042969 L 163.800781 107.042969 L 163.800781 120.042969 L 154.800781 120.042969 Z M 154.800781 107.042969 "/>
<g style="fill:rgb(100%,0%,0%);fill-opacity:1;">
  <use xlink:href="#glyph0-1" x="154.800781" y="116.944336"/>
</g>
<path style="fill:none;stroke-width:1.2;stroke-linecap:butt;stroke-linejoin:miter;stroke:rgb(0%,0%,0%);stroke-opacity:1;stroke-miterlimit:10;" d="M 219 123.585938 L 246.601562 128.609375 "/>
<path style="fill:none;stroke-width:1.2;stroke-linecap:butt;stroke-linejoin:miter;stroke:rgb(0%,0%,0%);stroke-opacity:1;stroke-miterlimit:10;" d="M 222.941406 117.59375 L 245.023438 121.613281 "/>
<path style="fill:none;stroke-width:1.2;stroke-linecap:butt;stroke-linejoin:miter;stroke:rgb(0%,0%,0%);stroke-opacity:1;stroke-miterlimit:10;" d="M 209.550781 97.171875 L 219 123.585938 "/>
<path style="fill:none;stroke-width:1.2;stroke-linecap:butt;stroke-linejoin:miter;stroke:rgb(0%,0%,0%);stroke-opacity:1;stroke-miterlimit:10;" d="M 246.601562 128.609375 L 264.75 107.214844 "/>
<path style="fill:none;stroke-width:1.2;stroke-linecap:butt;stroke-linejoin:miter;stroke:rgb(0%,0%,0%);stroke-opacity:1;stroke-miterlimit:10;" d="M 264.75 107.214844 L 255.296875 80.804688 "/>
<path style="fill:none;stroke-width:1.2;stroke-linecap:butt;stroke-linejoin:miter;stroke:rgb(0%,0%,0%);stroke-opacity:1;stroke-miterlimit:10;" d="M 257.589844 106.800781 L 250.027344 85.667969 "/>
<path style="fill:none;stroke-width:1.2;stroke-linecap:butt;stroke-linejoin:miter;stroke:rgb(0%,0%,0%);stroke-opacity:1;stroke-miterlimit:10;" d="M 255.296875 80.804688 L 227.699219 75.78125 "/>
<path style="fill:none;stroke-width:1.2;stroke-linecap:butt;stroke-linejoin:miter;stroke:rgb(0%,0%,0%);stroke-opacity:1;stroke-miterlimit:10;" d="M 227.699219 75.78125 L 209.550781 97.171875 "/>
<path style="fill:none;stroke-width:1.2;stroke-linecap:butt;stroke-linejoin:miter;stroke:rgb(0%,0%,0%);stroke-opacity:1;stroke-miterlimit:10;" d="M 230.917969 82.191406 L 216.398438 99.304688 "/>
</g>
</svg>

<svg xmlns="http://www.w3.org/2000/svg" xmlns:xlink="http://www.w3.org/1999/xlink" width="300pt" height="300pt" viewBox="0 0 300 300"><defs><symbol overflow="visible"><path d="M.547 1.938V-7.75h5.5v9.688zm.625-.61h4.266v-8.47H1.171zm0 0"/></symbol><symbol overflow="visible" id="a"><path d="M4.328-7.28c-.78 0-1.406.296-1.875.89-.46.585-.687 1.382-.687 2.39 0 1.012.226 1.813.687 2.406.47.586 1.094.875 1.875.875.79 0 1.414-.288 1.875-.874.457-.593.688-1.394.688-2.406 0-1.008-.23-1.805-.687-2.39-.46-.594-1.086-.89-1.875-.89zm0-.892c1.125 0 2.024.383 2.703 1.14C7.708-6.28 8.048-5.27 8.048-4c0 1.262-.34 2.273-1.016 3.03C6.353-.22 5.454.157 4.33.157S2.3-.22 1.625-.97c-.668-.75-1-1.757-1-3.03 0-1.27.332-2.28 1-3.03.676-.76 1.578-1.142 2.703-1.142zm0 0"/></symbol><symbol overflow="visible" id="b"><path d="M1.078-8.016h1.47l3.546 6.704v-6.704h1.062V0H5.688L2.124-6.703V0H1.078zm0 0"/></symbol></defs><g><path fill="#fff" d="M0 0h300v300H0z"/><path d="M35.25 114.848l4.727 13.207" stroke-width="1.2" stroke="#000" stroke-miterlimit="10" fill="none"/><path d="M39.977 128.055l4.726 13.207M44.703 141.262l13.797 2.51" stroke-width="1.2" stroke="#f00" stroke-miterlimit="10" fill="none"/><path d="M58.5 143.773l13.8 2.512" stroke-width="1.2" stroke="#000" stroke-miterlimit="10" fill="none"/><path d="M40.703 134.762h9v13h-9zm0 0" fill="#fff"/><use xlink:href="#a" x="40.703" y="144.663" fill="#f00"/><path d="M72.3 146.285l18.15-21.394M79.148 148.414l14.52-17.113M81.754 172.7L72.3 146.284M90.45 124.89l27.6 5.024M118.05 129.914l9.454 26.414M112.78 134.777l7.564 21.133M127.504 156.328l-18.152 21.39M127.504 156.328l27.598 5.02M109.352 177.72l-27.598-5.02M107.773 170.723l-22.078-4.016M155.102 161.348l4.726 13.207" stroke-width="1.2" stroke="#000" stroke-miterlimit="10" fill="none"/><path d="M159.828 174.555l4.727 13.207" stroke-width="1.2" stroke="#00f" stroke-miterlimit="10" fill="none"/><path d="M162.262 161.766l3.78 10.566" stroke-width="1.2" stroke="#000" stroke-miterlimit="10" fill="none"/><path d="M166.043 172.332l3.78 10.566" stroke-width="1.2" stroke="#00f" stroke-miterlimit="10" fill="none"/><path d="M173.25 139.957l-18.148 21.39" stroke-width="1.2" stroke="#000" stroke-miterlimit="10" fill="none"/><path d="M164.555 187.762l13.8 2.51" stroke-width="1.2" stroke="#00f" stroke-miterlimit="10" fill="none"/><path d="M178.355 190.273l13.8 2.512" stroke-width="1.2" stroke="#000" stroke-miterlimit="10" fill="none"/><path d="M160.555 181.262h8v13h-8zm0 0" fill="#fff"/><use xlink:href="#b" x="160.555" y="191.163" fill="#00f"/><path d="M192.156 192.785l9.45 26.41M199.313 193.2l7.562 21.132M210.305 171.39l-18.15 21.395M201.605 219.195l13.8 2.512" stroke-width="1.2" stroke="#000" stroke-miterlimit="10" fill="none"/><path d="M215.406 221.707l13.8 2.512M229.207 224.22l9.074-10.697" stroke-width="1.2" stroke="#00f" stroke-miterlimit="10" fill="none"/><path d="M238.28 213.523l9.075-10.695" stroke-width="1.2" stroke="#000" stroke-miterlimit="10" fill="none"/><path d="M225.988 217.81l7.258-8.556" stroke-width="1.2" stroke="#00f" stroke-miterlimit="10" fill="none"/><path d="M233.246 209.254l7.262-8.56" stroke-width="1.2" stroke="#000" stroke-miterlimit="10" fill="none"/><path d="M225.207 217.72h8v13h-8zm0 0" fill="#fff"/><use xlink:href="#b" x="225.207" y="227.62" fill="#00f"/><path d="M247.355 202.828l-4.726-13.207" stroke-width="1.2" stroke="#000" stroke-miterlimit="10" fill="none"/><path d="M242.63 189.62l-4.728-13.206M237.902 176.414l-13.8-2.512" stroke-width="1.2" stroke="#00f" stroke-miterlimit="10" fill="none"/><path d="M224.102 173.902l-13.797-2.51" stroke-width="1.2" stroke="#000" stroke-miterlimit="10" fill="none"/><path d="M233.96 182.406l-11.038-2.008" stroke-width="1.2" stroke="#00f" stroke-miterlimit="10" fill="none"/><path d="M222.922 180.398l-11.04-2.01" stroke-width="1.2" stroke="#000" stroke-miterlimit="10" fill="none"/><path d="M233.902 169.914h8v13h-8zm0 0" fill="#fff"/><use xlink:href="#b" x="233.902" y="179.815" fill="#00f"/><path d="M210.305 171.39l-4.727-13.206" stroke-width="1.2" stroke="#000" stroke-miterlimit="10" fill="none"/><path d="M205.578 158.184l-4.726-13.207M200.852 144.977l-13.8-2.508" stroke-width="1.2" stroke="#00f" stroke-miterlimit="10" fill="none"/><path d="M187.05 142.47l-13.8-2.513" stroke-width="1.2" stroke="#000" stroke-miterlimit="10" fill="none"/><path d="M200.852 144.977l9.074-10.696" stroke-width="1.2" stroke="#00f" stroke-miterlimit="10" fill="none"/><path d="M209.926 134.28L219 123.587" stroke-width="1.2" stroke="#000" stroke-miterlimit="10" fill="none"/><path d="M196.852 138.477h8v13h-8zm0 0" fill="#fff"/><use xlink:href="#b" x="196.852" y="148.378" fill="#00f"/><path d="M176.36 138.844l-4.727-13.207" stroke-width="1.2" stroke="#000" stroke-miterlimit="10" fill="none"/><path d="M171.633 125.637l-4.727-13.203" stroke-width="1.2" stroke="#f00" stroke-miterlimit="10" fill="none"/><path d="M170.145 141.07l-4.727-13.207" stroke-width="1.2" stroke="#000" stroke-miterlimit="10" fill="none"/><path d="M165.418 127.863l-4.727-13.207" stroke-width="1.2" stroke="#f00" stroke-miterlimit="10" fill="none"/><path d="M154.8 107.043h9v13h-9zm0 0" fill="#fff"/><use xlink:href="#a" x="154.801" y="116.944" fill="#f00"/><path d="M219 123.586l27.602 5.023M222.94 117.594l22.083 4.02M209.55 97.172l9.45 26.414M246.602 128.61l18.148-21.395M264.75 107.215l-9.453-26.41M257.59 106.8l-7.563-21.132M255.297 80.805L227.7 75.78M227.7 75.78l-18.15 21.392M230.918 82.19l-14.52 17.115" stroke-width="1.2" stroke="#000" stroke-miterlimit="10" fill="none"/></g></svg>
